X:3360
T:Bråttom
C:Anna Svensk
R:Polka
O:Ösmo, Södermanland
M:4/4
L:1/8
Q: 220
%%printtempo 0
K:C
|: C2C2 E3E | E2E2 GGG2 | G2D2 F3E  | D2C2 CCC2 | C2C2 E3E | E2E2 GGG2 | G2D2 F3E | D2C2 C4 :|
|: C2F2 F3E | C2E2 E3E  | G2GG G2GG | A2G2 G4   | C2F2 F3E | C2E2 E4   | G2D2 F3E | D2C2 C4 :|
(:musicend:)
(:music:)
